X:9
T: WIE MIR DEINE FREUDEN WINKEN
N: B0007
O: Europa, Mitteleuropa, Deutschland
R: politisch, national, Vaterlands - Lied
M: 4/4
L: 1/8
K: G
B2A2 | G3DG2A2 | B2G2
B2c2 | d2B2e2c2 | A4
B2A2 | G3DG2A2 | B2G2
A2A2 | AB^cde2c2 | d4
d2d2 | e2B2c2d2 | d2c2
A2Bc | d2A2B2c2 | c2B2
D2D2 | G2D2A2D2 | B2G2
c2A2 | d3cB2A2 | G4

